X:53
T:Old Black Joe/ Umsi the Gumsi
Q:1/4=180
I:abc2nwc
M:4/4
L:1/8
K:G
D2G2D2G2|F2E2F2E2|D2GG D2G2|F2G2A4|D2G2D2G2|F2E2F2E2|D3D B3A|G2F2G4:|
|:B3A GA B2|c3B AB c2|B3A GA B2|AG FE D3A|
B3A GA B2|c3B AB c2|B2G2A2F2|G4G4:|


